X: 36798
T: Shetland Fiddler, The
R: reel
M: 4/4
K: Dmajor
|:AB|d2fd Adfe|defg afdf|e2 ge Bege|cdef gece|
d2fd Adfe|defg afdf|(3fga fd (3fga fd|Bgec d2:|
|:cd|eAfA gAaA|eaaf gfed|AeBe cede|efed cABc|
dAeA fAgA|eaaf gfed|(3fga fd (3fga fd|Bgec d2:|

